Numix-GalliumOS/scalable/actions/format-text-smaller-symbolic.svg

<svg xmlns="http://www.w3.org/2000/svg" viewBox="0 0 16 16">
<path style="letter-spacing:0;word-spacing:0;color:#bebebe;fill:#bebebe;line-height:125%" d="M 7.375 4 L 3.8125 13.28125 L 2.9375 13.28125 L 2.9375 14 L 5.75 14 L 5.75 13.28125 L 4.65625 13.28125 L 5.5 11.09375 L 9.6875 11.09375 L 10.53125 13.28125 L 9.4375 13.28125 L 9.4375 14 L 13.0625 14 L 13.0625 13.28125 L 12.0625 13.28125 L 8.5 4 L 7.375 4 z M 7.59375 5.625 L 9.4375 10.375 L 5.78125 10.375 L 7.59375 5.625 z "/>
</svg>

<svg xmlns="http://www.w3.org/2000/svg" viewBox="0 0 16 16">
 <path d="m 7.375 4 l -3.563 9.281 l -0.875 0 l 0 0.719 l 2.813 0 l 0 -0.719 l -1.094 0 l 0.844 -2.188 l 4.188 0 l 0.844 2.188 l -1.094 0 l 0 0.719 l 3.625 0 l 0 -0.719 l -1 0 l -3.563 -9.281 l -1.125 0 z m 0.219 1.625 l 1.844 4.75 l -3.656 0 l 1.813 -4.75 z" style="fill:#bebebe;color:#bebebe"/>
</svg>
